X:1
T:Romances sans Paroles
T:Op. 17 No. 3
T:Romances sans Paroles
T:Gabriel Fauré
T:Op. 17, No. 3
T:Transcribed by Don Horrell
T:Transcribed by Don Horrell
T:Transcribed by Don Horrell
T:Transcribed by Don Horrell
C:Gabriel Faure
Z:Transcribed by Don Horrell
%%score { ( 1 5 ) | ( 2 3 4 ) }
L:1/8
Q:1/4=80
M:2/4
K:Ab
V:1 treble nm="Piano" snm="Pno."
V:5 treble 
V:2 bass 
V:3 bass 
V:4 bass 
V:1
"^Andante moderato" z4 | z4 | z4 | z2"^dolce" (e>d |"_sempre legato" c2 c>B | A2 B>c | d4-) | %7
 (d2 c>B |!<(! c2 B>!<)!!>(!A)!>)! |!p! (g2 a>c | e2- (3edc | B2)"^sempre legato" e>d | c2 c>B | %13
 A2 B>c | d4- | d2!<(! c>B | c2 e>a!<)! |"_con suono" c'2 b>a | g2 f2- | f2 a>f | e2 c>A | G2 F2 | %22
!>(! E4!>)! | z2!p! e2 | c2 d>e | f2 e>d |!<(! c2 d>e | f2 g>=a!<)! |!mf! b2 (._a._g) | f2 c2 | %30
!>(! e4!>)! | d z d2 |!<(! c2 =d>=e!<)! |!>(! f2 _e>d!>)! | c2"^più dolche" =d>=e | f2 _e>_d | %36
!<(! c2 G>B | A2 B>c!<)! |"^poco rit."!>(! c4 | B!>)! z"_dolcissimo""^a tempo" e'>d' | c'2 c'>b | %41
 a2 b>c' | d'4- | d'2 c'>b | c'2 a>g | a2 e>c | e2- (3edc | B2 e>d |"_cresc." c2 f>c | %49
"_molto" d2 f>_g | e2 a>e | f2 a>b |!f! bafd | c2 B2 | A4 |"_dim." z4 | z4 | z2!p! e>d | c2 c>B | %59
 A2 B>c | z!pp! (fad' | c'bge) | e2 z2 | A2 B>c | z!pp! (dfa | c'bge) | %66
 e2"^sempre dimin.sin'al" z2 |{/EA} c2 e>"^Fine"d |{/=DA} c2 B>A |!ppp!"^poco rit."{/EA} c2 e>d | %70
{/_FG} c2 B>A |{/DG} c2 B2 | [CEA]4 | a z z2 |] %74
V:2
 (A,,2 z z) | (C,2 z z) | (B,,2 z z) | (E,,2 z z) | A,,2 z z | C,2 z z | B,,2 z z | E,,2 z z | %8
 A,,2 z z | C,2 z z | B,,2 z z | E,,2 z z | A,,2 z z | C,2 z z | B,,2 z z | E,,2 z z | A,,2 z z | %17
 A,,/C/A,/=E,/ =EC | A,,/C/A,/F,/ FC | F,,/C/A,/F,/ FC | A,,/C/A,/F,/ EF, | B,,2 z z | E,,2 z z | %23
 E,2 z z | E,2 z z | E,2 z z | E,2 z z | E,2 z z | D,2 z z | =A,,2 z z | B,,2 z z | B,,2 z z | %32
 C,2 z z | B,,2 z z | C,2 z z | G,,2 z z | C,2 z z | F,,2 z z | E,,2 F2 | !arpeggio![E,B,EG] z z2 | %40
 [A,,,A,,]/ C/A,/E,/ EE, | [C,,C,]/ C/A,/E,/ EE, | [B,,,B,,]/ D/A,/E,/ EE, | E,,/ D/G,/E,/ EE, | %44
 [A,,,A,,]/ C/A,/E,/ EE, | [C,,C,]/ C/A,/E,/ EE, | E,,/ C/=A,/^F,/ [CE]E, | %47
 [E,,,E,,]/ B,/G,/E,/ EE, | [=A,,,=A,,]/ F,/C/F,/ F,A,, | [B,,,B,,]/ F,/B,/F,/ F,B,, | %50
 [C,,C,]/ A,/E/A,/ A,C, | [D,,D,]/ A,/D/A,/ A,D, | [B,,,B,,]/ D/F/D/ DB, | [E,,E,]/ D/E/D/ DE, | %54
 [A,,,A,,]/ C/A,/E,/ EE, | C,2 z2 | B,,2 z2 | E,,2 z2 | A,,2 z2 | C,2 z2 | B,,2 z2 | E,,2 z2 | %62
 A,,2 z2 | C,2 z2 | B,,2 z2 | E,,2 z2 | z/ A,3/2 z2 | z/ G,3/2 z2 | z/ F,3/2 z2 | z/ E,3/2 z2 | %70
 z/ D,3/2 z2 | z/ E,3/2 z2 | z/ A,,/E,/C/ z2 | z4 |] %74
V:3
 A,,/C/A,/E,/ EE, | C,/C/A,/E,/ EE, | B,,/D/A,/E,/ EE, | E,,/D/G,/E,/ EE, | A,,/C/A,/E,/ EE, | %5
 C,/C/A,/E,/ EE, | B,,/D/A,/E,/ EE, | E,,/D/G,/E,/ EE, | A,,/C/A,/E,/ EE, | C,/C/A,/E,/ EE, | %10
 B,,/D/A,/E,/ EE, | E,,/D/G,/E,/ EE, | A,,/C/A,/E,/ EE, | C,/C/A,/E,/ EE, | B,,/D/A,/E,/ EE, | %15
 E,,/D/G,/E,/ EE, | A,,/C/A,/E,/ EE, | x4 | x4 | x4 | x4 | B,,/=D/B,/A,/ DA, | %22
 E,,/G,/E,/B,,/ G,B,, | E,/G/E/B,/ G[G,B,E] | E,/E/B,/_G,/ _G[G,B,E] | E,/C/=A,/F,/ F[F,A,C] | %26
 E,/E/B,/_G,/ _G[G,B,E] | E,/C/=A,/F,/ F[F,A,C] | D,/D/B,/F,/ F[F,B,D] | =A,,/E/C/F,/ F[F,CE] | %30
 B,,/C/=A,/F,/ F[F,A,C] | B,,/D/B,/F,/ F[F,B,D] | C,/=E/C/G,/ E[=E,G,C] | B,,/D/B,/F,/ F[F,B,D] | %34
 C,/=E/C/G,/ E[=E,G,C] | G,,/D/B,/F,/ F[F,B,D] | C,/=E/C/B,/ =D[CE] | F,,/F/C/A,/ =D[F,A,] | %38
 E,,/E/A,/E,/ F[A,C] | x4 | x4 | x4 | x4 | x4 | x4 | x4 | x4 | x4 | x4 | x4 | x4 | x4 | x4 | x4 | %54
 x4 | C,/C/A,/E,/ EE, | B,,/D/A,/E,/ EE, | E,,/D/G,/E,/ EE, | A,,/C/A,/E,/ EE, | C,/C/A,/E,/ EE, | %60
 B,,/D/A,/E,/ EF, | E,,/D/G,/E,/ EG, | A,,/C/A,/E,/ EE, | C,/C/A,/E,/ EE, | B,,/D/A,/E,/ EF, | %65
 E,,/D/G,/E,/ EE, | z/ A,/E/A/ AA, | z/ G,/E/A/ AA, | z/ F,/=D/A/ AA, | z/ E,/E/A/ AA, | %70
 z/ D,/A,/_A/ AA, | z/ E,/G,/E/ E[G,D] | x4 | x4 |] %74
V:4
 x4 | x4 | x4 | x4 | x4 | x4 | x4 | x4 | x4 | x4 | x4 | x4 | x4 | x4 | x4 | x4 | x4 | x4 | x4 | %19
 x4 | x4 | x4 | x4 | x4 | x4 | x4 | x4 | x4 | x4 | x4 | x4 | x4 | x4 | x4 | x4 | x4 | x4 | x4 | %38
 z/ E3/2 z2 | x4 | x4 | x4 | x4 | x4 | x4 | x4 | x4 | x4 | x4 | x4 | x4 | x4 | x4 | x4 | x4 | x4 | %56
 x4 | x4 | x4 | x4 | x4 | x4 | x4 | x4 | x4 | x4 | x4 | x4 | x4 | x4 | x4 | x4 | x4 | x4 |] %74
V:5
 x4 | x4 | x4 | x4 | x4 | x4 | x4 | x4 | x4 | x4 | x4 | x4 | x4 | x4 | x4 | x4 | x4 | x4 | x4 | %19
 x4 | x4 | x4 | x4 | x4 | x4 | x4 | x4 | x4 | x4 | x4 | x4 | x4 | x4 | x4 | x4 | x4 | x4 | x4 | %38
 x4 | x4 | e>d c2 | c>B A2 | B>c d2- | d4 | c>B c2 | A>G A2 | E>F ^F2 | G2 z2 | E>D C2 | F>C D2 | %50
 _G>F E2 | A>E F2 | A>B BA | (G4 | A4) | x4 | x4 | x4 | x4 | x4 | d4- | d2 e>d | c2 c>B | x4 | %64
 d4- | d2 e>d | c2 B>A | x4 | x4 | x4 | x4 | x4 | z2 E/ A/c/e/ | x4 |] %74

